X:7907
T:Waltz,A. CJF.099
O:england
M:3/8
L:1/16
Q:50
S: C.J.Fox MS, 1829/33, Beverley,E.Yorks.
R:Waltz
A:East Yorkshire
B:Kidson Coll.Mitchell Lib.M1805
N:"From J.Johnson's" is in title line. There are no triplets in the MS. -
N:PJH
K:D
(3abc'|d'c'd'c'd'a|fafafd|bgbgbd'|a4((3abc')|\
d'c'd'c'd'c'|fafafd|gfgece|d4:|:f2|e2e2 (ec)|
d2d2 fd|g2g2 (ge)|a4f2|e2e2 ec|f2f2 fd|\
g2g2 ec|d4:|:a2|d'afadf|fe^dege|dcecAc|dFAdfa|
d'afadf|fe^dege|dcecAc|d4:||


